src/ui/resource-fill.svg

<?xml version="1.0" encoding="UTF-8"?><svg xmlns="http://www.w3.org/2000/svg" viewBox="0 0 32 32"><defs><style>.uuid-e6648287-8a7b-4609-9850-53f66af3e91b{fill:none;}.uuid-e6648287-8a7b-4609-9850-53f66af3e91b,.uuid-4eefdb16-10f8-493c-b482-4572a3af1f83{stroke-width:0px;}.uuid-4eefdb16-10f8-493c-b482-4572a3af1f83{fill:#151515;}</style></defs><g id="uuid-9513b1ad-9d9a-4b43-8416-b228e1f499b4"><rect class="uuid-e6648287-8a7b-4609-9850-53f66af3e91b" x="0" width="32" height="32"/></g><g id="uuid-8d339ad5-8340-4003-bc60-542026c05dfa"><path class="uuid-4eefdb16-10f8-493c-b482-4572a3af1f83" d="M26.5,1.25h-12.375v8.25c0,.8965-.729,1.625-1.625,1.625H4.25v18.375c0,.6895.5605,1.25,1.25,1.25h21c.6895,0,1.25-.5605,1.25-1.25V2.5c0-.6895-.5605-1.25-1.25-1.25ZM10,14.875h6c.6211,0,1.125.5039,1.125,1.125s-.5039,1.125-1.125,1.125h-6c-.6211,0-1.125-.5039-1.125-1.125s.5039-1.125,1.125-1.125ZM22,27.125h-12c-.6211,0-1.125-.5039-1.125-1.125s.5039-1.125,1.125-1.125h12c.6211,0,1.125.5039,1.125,1.125s-.5039,1.125-1.125,1.125ZM22,22.125h-12c-.6211,0-1.125-.5039-1.125-1.125s.5039-1.125,1.125-1.125h12c.6211,0,1.125.5039,1.125,1.125s-.5039,1.125-1.125,1.125Z"/><path class="uuid-4eefdb16-10f8-493c-b482-4572a3af1f83" d="M11.875,8.875V1.275c-.152.0266-.2968.0858-.4072.1967l-7,7.0479c-.0974.0981-.1517.2234-.1836.3555h7.5908Z"/></g></svg>

<svg xmlns="http://www.w3.org/2000/svg" viewBox="0 0 32 32">
  <defs>
    <style>
      .uuid-4eefdb16-10f8-493c-b482-4572a3af1f83{stroke-width:0;fill:#151515}
    </style>
  </defs>
  <path d="M0 0h32v32H0z" id="uuid-9513b1ad-9d9a-4b43-8416-b228e1f499b4" stroke-width="0" fill="none"/>
  <g id="uuid-8d339ad5-8340-4003-bc60-542026c05dfa">
    <path class="uuid-4eefdb16-10f8-493c-b482-4572a3af1f83" d="M26.5 1.25H14.125V9.5c0 .896-.729 1.625-1.625 1.625H4.25V29.5c0 .69.56 1.25 1.25 1.25h21c.69 0 1.25-.56 1.25-1.25v-27c0-.69-.56-1.25-1.25-1.25ZM10 14.875h6a1.125 1.125 0 0 1 0 2.25h-6a1.125 1.125 0 0 1 0-2.25Zm12 12.25H10a1.125 1.125 0 0 1 0-2.25h12a1.125 1.125 0 0 1 0 2.25Zm0-5H10a1.125 1.125 0 0 1 0-2.25h12a1.125 1.125 0 0 1 0 2.25Z"/>
    <path class="uuid-4eefdb16-10f8-493c-b482-4572a3af1f83" d="M11.875 8.875v-7.6a.743.743 0 0 0-.407.197l-7 7.048a.737.737 0 0 0-.184.355h7.591Z"/>
  </g>
</svg>
